resources/svg/chat-follow-up-fill.svg

<svg fill="currentColor" viewBox="0 0 24 24" xmlns="http://www.w3.org/2000/svg"><path d="M21 3C21.5523 3 22 3.44772 22 4V18C22 18.5523 21.5523 19 21 19H6.455L2 22.5V4C2 3.44772 2.44772 3 3 3H21ZM17 7H15V15H17V7ZM11 8H9V9.999L7 10V12L9 11.999V14H11V11.999L13 12V10L11 9.999V8Z"/></svg>

<svg xmlns="http://www.w3.org/2000/svg" viewBox="0 0 24 24" fill="currentColor">
    <g>
        <path fill="none" d="M0 0H24V24H0z"/>
        <path d="M21 3c.552 0 1 .448 1 1v14c0 .552-.448 1-1 1H6.455L2 22.5V4c0-.552.448-1 1-1h18zm-4 4h-2v8h2V7zm-6 1H9v1.999L7 10v2l2-.001V14h2v-2.001L13 12v-2l-2-.001V8z"/>
    </g>
</svg>
